packages/core/src/svgs/tokens/branded/PNB.svg

<svg width="24" height="24" viewBox="0 0 24 24" fill="none" xmlns="http://www.w3.org/2000/svg">
<path d="M2 9.02497V13.0874C2 13.95 2.7 14.5 3.55624 14.5H4.49998V16.2187C4.49998 17.0875 4.83748 17.625 5.69374 17.625H6.37499V20.4311C6.37499 21.2937 6.92498 22 7.78122 22H9.96877C10.8312 22 11.3749 21.2937 11.3749 20.4311V3.56874C11.3749 2.70624 10.8312 2 9.9749 2H7.63748C6.78123 2 6.37499 2.70624 6.37499 3.56248V4.49998H4.80623C4.38679 4.51304 3.9891 4.68973 3.69827 4.99224C3.40742 5.29476 3.24652 5.69909 3.24999 6.11873V7.62498C2.48125 7.71873 2 8.23122 2 9.02497ZM2.625 9.02497C2.625 8.59372 3.01874 8.24997 3.44374 8.24997H4.41874C4.84374 8.24997 5.41873 8.59372 5.41873 9.02497V9.36242C5.18748 9.49994 4.98749 9.75004 4.98749 10.0375C4.98749 10.475 5.29999 10.7563 5.73749 10.7563C6.16248 10.7563 6.47498 10.4687 6.47498 10.0375C6.47498 9.75004 6.31248 9.49994 6.08123 9.36242V9.02497C6.08123 8.16247 5.27498 7.62498 4.41874 7.62498H3.87499V6.11873C3.87499 5.68123 4.37499 5.12498 4.80623 5.12498H6.86248C7.29373 5.12498 7.62498 5.68749 7.62498 6.11873V6.61873C7.39373 6.75622 7.24998 7.00622 7.24998 7.29373C7.24998 7.73123 7.58748 8.01247 7.93748 8.00623C8.28748 7.99997 8.66248 7.72498 8.66248 7.29373C8.66248 7.00622 8.48122 6.75622 8.24997 6.61873V6.11873C8.24997 5.24999 7.85622 4.49374 6.99998 4.49374V3.56248C6.99998 3.12498 7.21247 2.61874 7.63748 2.61874H9.9749C10.4 2.61874 10.75 3.13124 10.75 3.55624V20.4374C10.75 20.8749 10.4 21.3812 9.9749 21.3812H7.78748C7.34998 21.3812 6.99998 20.8686 6.99998 20.4374V17.625H7.93748C8.07497 17.8562 8.28122 18.0125 8.61247 18.0125C8.94373 18.0125 9.31865 17.8124 9.31865 17.3812C9.31865 16.9437 9.04373 16.6125 8.61247 16.6125C8.32497 16.6125 8.07497 16.7687 7.94372 17H5.77499C5.34374 17 5.12499 16.65 5.12499 16.2187V14.5H6.86248C7.71873 14.5 8.24997 13.95 8.24997 13.0874V12.675C8.48122 12.5375 8.66248 12.2875 8.66248 11.9999C8.66248 11.5625 8.38122 11.2813 7.94998 11.2813C7.51872 11.2813 7.24998 11.5625 7.24998 11.9999C7.24998 12.2875 7.39373 12.5375 7.62498 12.675V13.0874C7.62498 13.5187 7.28748 13.8749 6.86248 13.8749H3.55624C3.125 13.8749 2.625 13.5187 2.625 13.0874V9.02497ZM7.56247 11.9999C7.56247 11.7812 7.73747 11.6062 7.94998 11.6062C8.16247 11.6062 8.33747 11.7812 8.33747 11.9999C8.33747 12.2124 8.16247 12.3937 7.94998 12.3937C7.89856 12.3937 7.84765 12.3835 7.80022 12.3637C7.7528 12.3438 7.70981 12.3147 7.67374 12.2781C7.63768 12.2413 7.60927 12.1978 7.59017 12.1502C7.57106 12.1025 7.56166 12.0514 7.56247 11.9999ZM8.61247 16.9311C8.82498 16.9311 8.99998 17.1061 8.99998 17.3249C8.99998 17.5375 8.82498 17.7125 8.61247 17.7125C8.51021 17.7108 8.41258 17.6695 8.34026 17.5972C8.26793 17.5248 8.22658 17.4273 8.22498 17.3249C8.22498 17.1061 8.39998 16.9311 8.61247 16.9311ZM8.33123 7.29373C8.34145 7.35043 8.33911 7.40871 8.32435 7.4644C8.3096 7.52011 8.2828 7.57189 8.24585 7.61611C8.20889 7.66033 8.16268 7.6959 8.11048 7.72029C8.05828 7.74471 8.00136 7.75735 7.94372 7.75735C7.88611 7.75735 7.82917 7.74471 7.77698 7.72029C7.72477 7.6959 7.67857 7.66033 7.6416 7.61611C7.60465 7.57189 7.57786 7.52011 7.5631 7.4644C7.54834 7.40871 7.54601 7.35043 7.55623 7.29373C7.55623 7.07498 7.72498 6.89998 7.93748 6.89998C8.15623 6.89998 8.33123 7.07498 8.33123 7.29373ZM6.12498 10.0437C6.10861 10.1346 6.06082 10.2167 5.99 10.2759C5.91917 10.3351 5.82979 10.3676 5.73749 10.3676C5.64518 10.3676 5.5558 10.3351 5.48497 10.2759C5.41415 10.2167 5.36636 10.1346 5.34998 10.0437C5.34998 9.825 5.51873 9.64373 5.73124 9.64373C5.94998 9.64373 6.12498 9.825 6.12498 10.0375V10.0437ZM22 9.02497V13.0874C22 13.95 21.3 14.5 20.4437 14.5H19.5V16.2187C19.5 17.0875 19.1624 17.625 18.3062 17.625H17.625V20.4311C17.625 21.2937 17.0749 22 16.2187 22H14.0312C13.1625 22 12.625 21.2937 12.625 20.4311V3.56874C12.625 2.70624 13.1686 2 14.025 2H16.3624C17.2187 2 17.625 2.70624 17.625 3.56248V4.49998H19.1937C20.0499 4.49998 20.7499 5.24999 20.7499 6.11873V7.62498C21.5187 7.71873 22 8.23122 22 9.02497ZM21.3749 9.02497C21.3749 8.59372 20.9812 8.24997 20.5562 8.24997H19.5812C19.1562 8.24997 18.5812 8.59372 18.5812 9.02497V9.36242C18.8124 9.49994 19.0125 9.75004 19.0125 10.0375C19.0125 10.475 18.6999 10.7563 18.2624 10.7563C17.8375 10.7563 17.525 10.4687 17.525 10.0375C17.525 9.75004 17.6874 9.49994 17.9187 9.36242V9.02497C17.9187 8.16247 18.7249 7.62498 19.5812 7.62498H20.1249V6.11873C20.1249 5.68123 19.6249 5.12498 19.1937 5.12498H17.1375C16.7063 5.12498 16.3749 5.68749 16.3749 6.11873V6.61873C16.6062 6.75622 16.75 7.00622 16.75 7.29373C16.75 7.73123 16.4124 8.01247 16.0624 8.00623C15.7124 7.99997 15.3375 7.72498 15.3375 7.29373C15.3375 7.00622 15.5187 6.75622 15.7499 6.61873V6.11873C15.7499 5.24999 16.1436 4.49374 17 4.49374V3.56248C17 3.12498 16.7875 2.61874 16.3624 2.61874H14.025C13.6 2.61874 13.25 3.13124 13.25 3.55624V20.4374C13.25 20.8749 13.6 21.3812 14.025 21.3812H16.2125C16.65 21.3812 17 20.8686 17 20.4374V17.625H16.0624C15.9249 17.8562 15.7187 18.0125 15.3875 18.0125C15.0562 18.0125 14.6812 17.8124 14.6812 17.3812C14.6812 16.9437 14.9563 16.6125 15.3875 16.6125C15.6749 16.6125 15.925 16.7687 16.0563 17H18.225C18.6562 17 18.8749 16.65 18.8749 16.2187V14.5H17.1375C16.2811 14.5 15.7499 13.95 15.7499 13.0874V12.675C15.6285 12.6079 15.5268 12.5104 15.4544 12.3919C15.3821 12.2737 15.3418 12.1386 15.3375 11.9999C15.3375 11.5625 15.6186 11.2813 16.05 11.2813C16.4812 11.2813 16.75 11.5625 16.75 11.9999C16.75 12.2875 16.6062 12.5375 16.3749 12.675V13.0874C16.3749 13.5187 16.7125 13.8749 17.1375 13.8749H20.4437C20.8749 13.8749 21.3749 13.5187 21.3749 13.0874V9.02497ZM16.4375 11.9999C16.4375 11.8966 16.3968 11.7974 16.3243 11.7237C16.2518 11.6501 16.1533 11.6078 16.05 11.6062C15.9466 11.6078 15.848 11.6501 15.7755 11.7237C15.7031 11.7974 15.6624 11.8966 15.6625 11.9999C15.6625 12.2124 15.8374 12.3937 16.05 12.3937C16.2625 12.3937 16.4375 12.2187 16.4375 11.9999ZM15.3875 16.9311C15.2841 16.9329 15.1855 16.975 15.113 17.0487C15.0405 17.1223 15 17.2216 15 17.3249C15 17.5375 15.175 17.7125 15.3875 17.7125C15.491 17.7125 15.5903 17.6712 15.6637 17.598C15.7369 17.5248 15.778 17.4254 15.778 17.3218C15.778 17.2183 15.7369 17.1188 15.6637 17.0456C15.5903 16.9724 15.491 16.9311 15.3875 16.9311ZM15.6687 7.29373C15.6584 7.35043 15.6608 7.40871 15.6755 7.4644C15.6904 7.52011 15.7171 7.57189 15.7541 7.61611C15.791 7.66033 15.8372 7.6959 15.8894 7.72029C15.9416 7.74471 15.9985 7.75735 16.0563 7.75735C16.1139 7.75735 16.1708 7.74471 16.223 7.72029C16.2752 7.6959 16.3214 7.66033 16.3583 7.61611C16.3953 7.57189 16.422 7.52011 16.4369 7.4644C16.4516 7.40871 16.454 7.35043 16.4438 7.29373C16.4438 7.19143 16.4039 7.09312 16.3328 7.01962C16.2616 6.94614 16.1646 6.90322 16.0624 6.89998C15.958 6.89998 15.8579 6.94146 15.784 7.01531C15.7102 7.08914 15.6687 7.1893 15.6687 7.29373ZM17.875 10.0437C17.8913 10.1346 17.9391 10.2167 18.01 10.2759C18.0807 10.3351 18.1701 10.3676 18.2624 10.3676C18.3547 10.3676 18.4441 10.3351 18.515 10.2759C18.5857 10.2167 18.6336 10.1346 18.6499 10.0437C18.6517 9.94035 18.6126 9.84045 18.5413 9.76564C18.47 9.69083 18.3721 9.64693 18.2687 9.64373C18.2169 9.64373 18.1657 9.65393 18.1181 9.67362C18.0702 9.69346 18.0268 9.72248 17.9903 9.75908C17.9537 9.79554 17.9247 9.839 17.9049 9.88683C17.8852 9.93452 17.875 9.98571 17.875 10.0375V10.0437Z" fill="#F1396D"/>
</svg>

<svg xmlns="http://www.w3.org/2000/svg" width="24" height="24" fill="none" viewBox="0 0 24 24">
    <path fill="#F1396D" d="M2 9.025v4.062c0 .863.7 1.413 1.556 1.413H4.5v1.719c0 .868.337 1.406 1.194 1.406h.681v2.806c0 .863.55 1.569 1.406 1.569H9.97c.862 0 1.406-.706 1.406-1.569V3.57c0-.863-.544-1.569-1.4-1.569H7.637c-.856 0-1.262.706-1.262 1.562V4.5H4.806A1.606 1.606 0 0 0 3.25 6.119v1.506c-.769.094-1.25.606-1.25 1.4m.625 0c0-.431.394-.775.819-.775h.975c.425 0 1 .344 1 .775v.337c-.232.138-.432.388-.432.675 0 .438.313.72.75.72.425 0 .738-.288.738-.72a.79.79 0 0 0-.394-.675v-.337c0-.863-.806-1.4-1.662-1.4h-.544V6.119c0-.438.5-.994.931-.994h2.056c.432 0 .763.562.763.994v.5a.77.77 0 0 0-.375.675c0 .437.337.718.687.712s.725-.281.725-.712c0-.288-.18-.538-.412-.675v-.5c0-.869-.394-1.625-1.25-1.625v-.932c0-.437.212-.943.637-.943h2.338c.425 0 .775.512.775.937v16.881c0 .438-.35.944-.775.944H7.787c-.437 0-.787-.512-.787-.944v-2.812h.937a.73.73 0 0 0 .675.387c.332 0 .707-.2.707-.63 0-.438-.275-.77-.707-.77a.77.77 0 0 0-.668.388H5.775c-.431 0-.65-.35-.65-.781V14.5h1.737c.857 0 1.388-.55 1.388-1.413v-.412c.231-.138.412-.388.412-.675 0-.437-.28-.719-.712-.719s-.7.281-.7.719c0 .287.144.537.375.675v.412a.775.775 0 0 1-.763.788H3.556c-.431 0-.931-.356-.931-.788zM7.562 12a.39.39 0 0 1 .388-.394.39.39 0 0 1 .387.394.395.395 0 0 1-.387.394.39.39 0 0 1-.388-.394m1.05 4.931a.39.39 0 0 1 0 .781.394.394 0 0 1-.387-.387.39.39 0 0 1 .387-.394m-.28-9.637a.394.394 0 1 1-.776 0c0-.219.169-.394.381-.394.22 0 .394.175.394.394m-2.207 2.75a.393.393 0 0 1-.775 0c0-.219.169-.4.381-.4.219 0 .394.181.394.393zM22 9.025v4.062c0 .863-.7 1.413-1.556 1.413H19.5v1.719c0 .868-.338 1.406-1.194 1.406h-.681v2.806c0 .863-.55 1.569-1.406 1.569H14.03c-.869 0-1.406-.706-1.406-1.569V3.57c0-.863.544-1.569 1.4-1.569h2.337c.857 0 1.263.706 1.263 1.562V4.5h1.569c.856 0 1.556.75 1.556 1.619v1.506c.769.094 1.25.606 1.25 1.4m-.625 0c0-.431-.394-.775-.819-.775h-.975c-.425 0-1 .344-1 .775v.337c.231.138.431.388.431.675 0 .438-.312.72-.75.72-.425 0-.737-.288-.737-.72a.79.79 0 0 1 .394-.675v-.337c0-.863.806-1.4 1.662-1.4h.544V6.119c0-.438-.5-.994-.931-.994h-2.056c-.432 0-.763.562-.763.994v.5a.77.77 0 0 1 .375.675c0 .437-.338.718-.688.712s-.725-.281-.725-.712c0-.288.182-.538.413-.675v-.5c0-.869.394-1.625 1.25-1.625v-.932c0-.437-.212-.943-.638-.943h-2.337c-.425 0-.775.512-.775.937v16.881c0 .438.35.944.775.944h2.187c.438 0 .788-.512.788-.944v-2.812h-.938a.73.73 0 0 1-.675.387c-.33 0-.706-.2-.706-.63 0-.438.275-.77.707-.77.287 0 .537.157.668.388h2.169c.431 0 .65-.35.65-.781V14.5h-1.738c-.856 0-1.387-.55-1.387-1.413v-.412a.8.8 0 0 1-.412-.675c0-.437.28-.719.712-.719s.7.281.7.719a.77.77 0 0 1-.375.675v.412c0 .432.337.788.762.788h3.307c.43 0 .93-.356.93-.788zM16.438 12a.394.394 0 0 0-.388-.394.394.394 0 0 0 0 .788.39.39 0 0 0 .387-.394m-1.05 4.931a.395.395 0 0 0-.388.394.39.39 0 1 0 .664-.28.4.4 0 0 0-.277-.114m.28-9.637a.393.393 0 1 0 .776 0 .394.394 0 0 0-.382-.394.394.394 0 0 0-.393.394m2.207 2.75a.393.393 0 0 0 .775 0 .393.393 0 0 0-.381-.4.394.394 0 0 0-.394.393z"/>
</svg>
